lib/icons-source/trash.svg

<svg width="20" height="21" viewBox="0 0 20 21" fill="none" xmlns="http://www.w3.org/2000/svg">
<g clip-path="url(#clip0_20_43)">
<rect width="20" height="21" fill="white"/>
<path d="M18.3787 6.5335C18.5538 6.69836 18.6442 6.91978 18.6287 7.14553L18.1608 13.9541C18.1299 14.4064 17.6908 14.7506 17.1804 14.7232C16.6699 14.6956 16.2815 14.3068 16.3124 13.8545L16.7204 7.91602H3.27962L3.95996 17.8184C4.01928 18.6825 4.83127 19.3594 5.80838 19.3594H14.1916C15.1689 19.3594 15.9807 18.6825 16.0402 17.8184C16.0711 17.3663 16.5102 17.0221 17.0206 17.0495C17.5311 17.0769 17.9196 17.4659 17.8886 17.9181C17.7698 19.6463 16.146 21 14.1916 21H5.80838C3.85399 21 2.23018 19.6463 2.11136 17.9181L1.37135 7.14553C1.35579 6.91978 1.44622 6.69836 1.62127 6.5335C1.79633 6.3688 2.04029 6.27539 2.29565 6.27539H17.7044C17.9597 6.27539 18.2037 6.3688 18.3787 6.5335ZM20 3.81173C20 4.26482 19.5855 4.63204 19.0741 4.63204H0.925926C0.414497 4.63204 0 4.26482 0 3.81173C0 3.35863 0.414497 2.99142 0.925926 2.99142H5.84852C6.0149 1.31747 7.60507 0 9.53704 0H10.463C12.3949 0 13.9851 1.31747 14.1515 2.99142H19.0741C19.5855 2.99142 20 3.35863 20 3.81173ZM7.71466 2.99142H12.2853C12.1304 2.22462 11.3724 1.64062 10.463 1.64062H9.53704C8.62757 1.64062 7.86965 2.22462 7.71466 2.99142Z" fill="black"/>
</g>
<defs>
<clipPath id="clip0_20_43">
<rect width="20" height="21" fill="white"/>
</clipPath>
</defs>
</svg>

<svg viewBox="0 0 20 21" fill="none" xmlns="http://www.w3.org/2000/svg"><rect fill="white"/><path d="M18.379 6.534a.77.77 0 0 1 .25.612l-.468 6.808c-.031.452-.47.797-.98.77-.511-.028-.9-.417-.869-.87l.408-5.938H3.28l.68 9.902c.06.864.871 1.541 1.848 1.541h8.384c.977 0 1.789-.677 1.848-1.54.031-.453.47-.797.98-.77.511.028.9.417.869.87-.12 1.727-1.743 3.081-3.697 3.081H5.808c-1.954 0-3.578-1.354-3.697-3.082l-.74-10.772a.77.77 0 0 1 .25-.612 1 1 0 0 1 .675-.259h15.408c.256 0 .5.094.675.258M20 3.812c0 .453-.415.82-.926.82H.926c-.512 0-.926-.367-.926-.82s.414-.82.926-.82h4.923C6.015 1.316 7.605 0 9.537 0h.926c1.932 0 3.522 1.317 3.689 2.991h4.922c.511 0 .926.368.926.82m-12.285-.82h4.57c-.155-.767-.913-1.351-1.822-1.351h-.926c-.91 0-1.667.584-1.822 1.35" fill="black"/></svg>
